X:1
T:Title
%%score { ( 1 3 ) | 2 }
L:1/8
M:4/4
K:Eb
V:1 treble nm="Grand Piano"
V:3 treble 
V:2 bass 
V:1
 z4 z2[Q:1/4=100] EF | G2 [EG]2 GGFG | A2 [DA]2 z B,FG | A2 [DA]2 [FA]AGF | B2 B2 B2 BB | %5
 c2 c2 cedc | B2 B2 G4 | EFG[FA] [GB][Ge]BA | [EG]2 [DF]2 z4 | c2 c2 c2 e>c | %10
 [GB]->[EGB] [GB]->[EGB] [B,EG]4 | [DB]2- [F,DB]2 [B,DF]2 c>c | %12
 [GB]->[B,G-B-] [B,G-B-]>[B,GB] G2 EF | G2 [FA]2 [GB][GB]eB | [Bd]-[EBd][Ac]-[EAc] [EGB]4 | %15
 [B,E][DF][B,EG][B,FA] [EGB][Ge]BA | [EG]2 [DF]2 z4 |] %17
V:2
 z4 z2 [E,G,][E,A,E] | [E,B,E]2 [B,,B,]2 [E,B,E][G,B,E][A,B,D][G,B,E] | %2
 [F,B,D]2 [B,,B,]2 .[F,B,]2 [A,B,D][G,B,E] | [F,B,D]2 [B,,B,]2 [D,B,][F,B,D][B,D][A,B,D] | %4
 [G,B,E]2 [F,A,D]2 [E,G,E]2 [E,G,E][E,G,E] | [A,E]2 [A,E]2 [A,E][A,CE][A,B,E][A,E] | %6
 [E,G,E]2 [E,G,E]2 [E,B,E]4 | [G,B,][B,D][E,B,E][E,B,] [E,E][E,B,][K:treble]GF | %8
 B,,B,,B,,B,, [E,G,]4 | [A,EA]2 [A,EA]2 [A,EA]2 c>A | E,>E, E,>E, E,4 | %11
 B,,2 B,,2 B,,2[K:treble] A>A | E,>E, E,>E, [E,B,E]2 [E,G,][E,A,E] | %13
 [E,B,E]2 [E,B,]2 [E,E][E,E][K:treble]GG | A,,B,,C,D, E,4 | G,B,E,E, E,[E,B,][K:treble]GF | %16
 B,,B,,B,,B,, [E,G,]4 |] %17
V:3
 x8 | x8 | z4 [DA]2 z2 | x8 | x8 | x8 | x8 | x8 | B,B,A,A, E4 | x8 | E2 E2 z4 | B,2 z2 z4 | %12
 B,2 z2 z4 | x8 | .E2 .E2 z4 | x8 | B,B,A,A, E4 |] %17

